X:1
T:Title
%%score { ( 1 3 ) | ( 2 4 ) }
L:1/8
M:4/4
K:Eb
V:1 treble nm="Grand Piano"
V:3 treble 
V:2 bass 
V:4 bass 
V:1
 z4 z2[Q:1/4=100] [EG]>[FA] | [GB]>[GB] [GB]>[GB] [Ge]>[GB] G>[Ac] | [GB]6 [Ac]>[GB] | %3
 [FA]>[FA] [FA]>[FA] [FA]>[Ac] [GB]>[FA] | [EG]6 [EG]>[FA] | [GB]>[GB] [GB]>[GB] [Ge]>[GB] G>[Ac] | %6
 [GB]6 [CEA]>[B,EG] | [CEF]>[CEF] [CEF]>[CEF] [B,DF]>[B,FA] [B,EG]>[A,DF] |[M:3/4] [G,E]6 | %9
[M:1/4] [Ac]>[GB] |[M:4/4] [FA]>[=EG] [FA]4 [GB]>[FA] | G>_G =G4 A>G | F>F F>F F>e d>c | %13
 B2- [EB-]2 [FB]2 [Dc]>[EB] | [FA]>[=EG] [FA]4 [GB]>[FA] | G>_G =G4 A>G | %16
 [CEF]>[CEF] [CEF]>[CEF] [B,DF]>[B,FA] [B,EG]>[A,DF] |[M:3/4] [G,E]6 |] %18
V:2
 z4 z2 [E,B,]>[E,B,] | [E,E]>[E,E] [E,E]>[E,E] [E,B,]>[E,E] [E,E]>[E,E] | [E,E]6 [E,B,]>[E,B,] | %3
 [B,,B,]>[B,,B,] [B,,B,]>[B,,B,] [B,,B,]>[B,,B,] [C,B,]>[D,B,] | [E,B,]6 [E,B,]>[E,B,] | %5
 [E,E]>[E,E] [E,E]>[E,E] [E,B,]>[E,E] [E,E]>[E,E] | [E,E]6 E,>E, | %7
 A,,>A,, A,,>A,, B,,>B,, B,,>B,, |[M:3/4] E,6 |[M:1/4] [E,B,]>[E,B,] | %10
[M:4/4] [B,,B,]>[B,,B,] [B,,B,]4 [B,,B,]>[B,,B,] | [E,B,E]>[E,=A,E] [E,B,E]4 [E,CE]>[E,B,E] | %12
 [F,B,D]>[F,B,D] [F,B,D]>[F,B,D] [F,B,D]>[F,CF] [F,B,F]>[F,=A,E] | z2 G,2 A,2 [B,,A,]>[B,,G,] | %14
 [B,,F,]>[B,,B,] [B,,B,]4 [B,,B,]>[B,,B,] | [E,B,E]>[E,=A,E] [E,B,E]4 [E,CE]>[E,B,E] | %16
 A,,>A,, A,,>A,, B,,>B,, B,,>B,, |[M:3/4] E,6 |] %18
V:3
 x8 | x8 | x8 | x8 | x8 | x8 | x8 | x8 |[M:3/4] x6 |[M:1/4] x2 |[M:4/4] x8 | x8 | x8 | %13
 [B,D]2 z2 z4 | x8 | x8 | x8 |[M:3/4] x6 |] %18
V:4
 x8 | x8 | x8 | x8 | x8 | x8 | x8 | x8 |[M:3/4] x6 |[M:1/4] x2 |[M:4/4] x8 | x8 | x8 | B,,6 z2 | %14
 x8 | x8 | x8 |[M:3/4] x6 |] %18

